!!!!SEGMENT: pl-kk--kk-i-389--008-007_anonim--missa-no-8-agnus.krn
!!!cenid: 17xx:2512
!!!COM: Anonim
!!!COM-rismID: pe30004985
!!!CDT:
!!!CNT:
!!!OPR: [Missa] No. 8.
!!!OTL: Agnus
!!!OMV: 007
!!!PDT:
!!!AGN: Sacred; Mass
!!!YEC: Copyright 2022 Narodowy Instytut Fryderyka Chopina (https://polishscores.org)
!!!YEM: License CC-BY-4.0 (https://creativecommons.org/licenses/by/4.0)
!!!SMS-siglum: PL-Kk
!!!SMS-shelfmark: Kk.I.389
!!!SMS-variant:
!!!SMS-altvar:
!!!SMS-shelfwork: 008-007 M
!!!NIFC-rismSourceID: 1001146182
!!!NIFC-rismChildID: 1001147247
!!!NIFC-islandoraID: pl-kk:6976
!!!URL-pdf-islandora: https://repozytorium.nifc.pl/islandora/object/pl-kk%3A6976/datastream/PDF/view
!!!URL-scan: https://polish.musicsources.pl/pl/lokalizacje/galeria/rekopisy/5999/1 @EN{Scan on Polish Music Sources Website} @PL{Skany w portalu Dziedzictwo Muzyki Polskiej w otwartym dostępie}
!!!IIIF:
!!!ONB-nifc: UWAGA: S – skan 14-15 , A – 32-34, T – 51-53 , B – 70-71. Części Mszy: Rorate, Kyrie, Gloria, Graduale, Sanctus, Benedictus, Agnus, Dona.
!!!AIN: 1 alto 1 bass 1 soprn 1 tenor
!!!key: C
**kern	**text	**kern	**text	**kern	**text	**kern	**text
*part4	*part4	*part3	*part3	*part2	*part2	*part1	*part1
*staff4	*staff4	*staff3	*staff3	*staff2	*staff2	*staff1	*staff1
*I"Basso.	*	*I"Tenore.	*	*I"Alto.	*	*I"Soprano.	*
*I'B	*	*I'T	*	*I'A	*	*I'S	*
*ICvox	*	*ICvox	*	*ICvox	*	*ICvox	*
*Ibass	*	*Itenor	*	*Ialto	*	*Isoprn	*
*clefF4	*	*clefC4	*	*clefC3	*	*clefC1	*
*k[]	*	*k[]	*	*k[]	*	*k[]	*
*C:	*	*C:	*	*C:	*	*C:	*
*M2/2	*	*M2/2	*	*M2/2	*	*M2/2	*
*met(C.)	*	*met(C.)	*	*met(C.)	*	*met(C.)	*
=1	=1	=1	=1	=1	=1	=1	=1
*	*	*	*	*	*	*all\right:global	*
*	*	*2\right	*	*2\right	*	*2\right	*
!LO:TX:t=P:problem:4\right:global	!	!LO:TX:t=P:problem:2\right:global	!	!LO:TX:t=P:problem:2\right:global	!	!LO:TX:t=P:problem:2\right:global	!
4C\	A-	2e\	A-	2g\	A-	2cc\	A-
4E\	.	.	.	.	.	.	.
!	!	!LO:TX:t=P:problem:8\right:global	!	!LO:TX:t=P:problem:8\right:global	!	!LO:TX:t=P:problem:4\right:global	!
4G\	.	8e\L	.	8g\L	.	4b\	.
.	.	8f\J	.	8a\J	.	.	.
4GG/	-gdnus	8e\L	-gnus	8g\L	-gnus	4b\	-gnus
.	.	8d\J	.	8f\J	.	.	.
=2	=2	=2	=2	=2	=2	=2	=2
!	!	!LO:TX:t=P:problem:4\right:global	!	!LO:TX:t=P:problem:4\right:global	!	!	!
4GG/	De-	4d\	De-	4f\	De-	4b\	De-
4C/	-i	4c\	-i	4e\	-i	4g\	-i
4r	.	4r	.	4r	.	4r	.
4C/	qui	4c\	qui	4e\	qui	4g\	qui
=3	=3	=3	=3	=3	=3	=3	=3
4G\	tol-	4B\	tol-	4d\	tol-	4g\	tol-
8G\	-lis	8B\	-lis	8d\	-lis	8g\	-lis
8G\	pec-	8c\	pec-	8e\	pec-	8g\	pec-
!	!	!	!	!	!	!LO:TX:t=P:problem:8\right:global	!
4G\	-ca-	8e\L	-ca-	8g\L	-ca-	8cc\L	-ca-
.	.	8d\J	.	8f\J	.	8b\J	.
4G\	-ta	8c\L	-ta	8e\L	-ta	4g\	-ta
.	.	8B\J	.	8d\J	.	.	.
=4	=4	=4	=4	=4	=4	=4	=4
4c\	mun-	8c\L	mun-	8e\L	mun-	4g\	mun-
.	.	8d\	.	8f\	.	.	.
4G\	.	8e\	.	8g\	.	4b\	.
.	.	8f\J	.	8a\J	.	.	.
4C/	-di	4e\	-di	4g\	-di	4g\	-di
4r	.	4r	.	4r	.	4r	.
!	!	!LO:LB:g=original	!	!LO:LB:g=original	!	!LO:LB:g=original	!
=5	=5	=5	=5	=5	=5	=5	=5
4C/	A-	2e\	A-	2g\	A-	2cc\	A-
4E\	.	.	.	.	.	.	.
!LO:LB:g=original	!	!	!	!	!	!	!
4G\	.	8e\L	.	8g\L	.	4b\	.
.	.	8f\J	.	8a\J	.	.	.
4GG/	-gnus	8e\L	-gnus	8g\L	-gnus	4b\	-gnus
.	.	8d\J	.	8f\J	.	.	.
=6	=6	=6	=6	=6	=6	=6	=6
4GG/	De-	4d\	De-	4f\	De-	4b\	De-
4C/	-i	4c\	-i	4e\	-i	4g\	-i
4r	.	4r	.	4r	.	4r	.
4C/	qui	4c\	qui	4e\	qui	4g\	qui
=7	=7	=7	=7	=7	=7	=7	=7
4G\	tol-	4B\	tol-	4d\	tol-	4g\	tol-
!LO:TX:t=P:problem:8\right:global	!	!	!	!	!	!	!
8G\	-lis	8B\	-lis	8d\	-lis	8g\	-lis
8G\	pec-	8c\	pec-	8e\	pec-	8g\	pec-
4G\	-ca-	8e\L	-ca-	8g\L	-ca-	8cc\L	-ca-
.	.	8d\J	.	8f\J	.	8b\J	.
4G\	-ta	8c\L	-ta	8e\L	-ta	4g\	-ta
.	.	8B\J	.	8d\J	.	.	.
=8	=8	=8	=8	=8	=8	=8	=8
4c\	mun-	8c\L	mun-	8e\L	mun-	4g\	mun-
.	.	8d\	.	8f\	.	.	.
4G\	.	8e\	.	8g\	.	4b\	.
.	.	8f\J	.	8a\J	.	.	.
4C/	-di	4e\	-di	4g\	-di	4g\	-di
4r	.	4r	.	4r	.	4r	.
=9	=9	=9	=9	=9	=9	=9	=9
2C/	mi-	4e\	mi-	4g\	mi-	2.cc\	mi-
.	.	4d\	.	4e\	.	.	.
4E\	.	4G/	.	4c/	.	.	.
4C\	-se-	4G/	-se-	4B-X/	-se-	4cc\	-se-
!	!	!LO:LB:g=original	!	!	!	!	!
=10	=10	=10	=10	=10	=10	=10	=10
*2\right	*	*	*	*	*	*	*
!LO:TX:t=P:problem:2\right:global	!	!	!	!	!	!	!
2.F\	-re-	4F/	-re-	4A/	-re-	2.cc\	-re-
.	.	4f\	.	4a\	.	.	.
!	!	!	!	!LO:LB:g=original	!	!	!
.	.	8e\L	.	8g\L	.	.	.
.	.	8d\J	.	8f\	.	.	.
4F#X\	-re	4c\	-re	8e\	-re	4a\	-re
.	.	.	.	8d\J	.	.	.
=11	=11	=11	=11	=11	=11	=11	=11
2G\	no-	2e\	no-	2c\	no-	2g\	no-
2GG/	-bis	2d\	-bis	2B/	-bis	2g\	-bis
!LO:LB:g=original	!	!	!	!	!	!LO:LB:g=original	!
=12	=12	=12	=12	=12	=12	=12	=12
2G\	mi-	2B\	mi-	2g\	mi-	2dd\	mi-
2A\	-se-	2c\	-se-	2f#X\	-se-	2cc\	-se-
=13	=13	=13	=13	=13	=13	=13	=13
2B\	-re-	2d\	-re-	2fn\	-re-	2g\	-re-
2c\	-re	2c\	-re	2e\	-re	2g\	-re
=14	=14	=14	=14	=14	=14	=14	=14
4G\	no-	2B\	no-	2d\	no-	1g	no-
4F\	.	.	.	.	.	.	.
4E\	.	2c\	.	2e\	.	.	.
4F\	-bis	.	.	.	.	.	.
=15	=15	=15	=15	=15	=15	=15	=15
2G\	no-	2c\	.	2e\	.	1g	.
2GG/	.	2B\	.	2d\	.	.	.
=16	=16	=16	=16	=16	=16	=16	=16
1C	-bis	1c	-bis	2e\	-bis.	1g	-bis
.	.	.	.	2r	.	.	.
!	!	!LO:LB:g=original	!	!LO:LB:g=original	!	!	!
=17||	=17||	=17||	=17||	=17||	=17||	=17||	=17||
*M2/2	*	*M2/2	*	*M2/2	*	*M2/2	*
*met(C.)	*	*met(C.)	*	*met(C.)	*	*met(C.)	*
4C/	A-	2.c\	A-	4e\	A-	2.g\	A-
4D\	.	.	.	4f\	.	.	.
8qF/	.	.	.	8qa/	.	.	.
4E\	.	.	.	4g\	.	.	.
8D\L	-gnus	4c\	-gnus	8f\L	-gnus	4g\	-gnus
8C\J	.	.	.	8e\J	.	.	.
=18	=18	=18	=18	=18	=18	=18	=18
4G\	De-	4B\	De-	2g\	De-	2dd\	De-
4A\	.	4c\	.	.	.	.	.
.	.	8qe/	.	.	.	.	.
4B\	-i	4d\	-i	4g\	-i	4dd\	-i
8A\L	qui	8c\L	qui	4g\	qui	4b\	qui
8G\J	.	8B\J	.	.	.	.	.
!LO:LB:g=original	!	!	!	!	!	!	!
=19	=19	=19	=19	=19	=19	=19	=19
4c\	tol-	2e\	tol-	2g\	tol-	2cc\	tol-
8G\L	.	.	.	.	.	.	.
8E\J	.	.	.	.	.	.	.
4C/	-lis	4e\	-lis	4g\	-lis	4cc\	-lis
4C/	pec-	4e\	pec-	4g\	pec-	4cc\	pec-
=20	=20	=20	=20	=20	=20	=20	=20
4BB/	-ca-	4d\	-ca-	4g\	-ca-	4dd\	-ca-
4C/	-ta	4e\	-ta	4g\	-ta	4cc\	-ta
!	!	!	!	!	!	!LO:LB:g=original	!
4D/	mun-	2f\	mun-	2g\	mun-	4b\	mun-
4GG/	.	.	.	.	.	4dd\	.
=21	=21	=21	=21	=21	=21	=21	=21
2C/	-di	2e\	-di	2g\	-di	2cc\	-di
!	!	!	!	!LO:LB:g=original	!	!	!
4r	.	4r	.	4r	.	4r	.
4C/	pe-	4e\	qui	4g\	qui	4cc\	qui
!	!	!LO:LB:g=original	!	!	!	!	!
=22	=22	=22	=22	=22	=22	=22	=22
2F#X\	-ca-	2d\	tol-	2a\	tol-	2cc\	tol-
4G\	-ta	4d\	-lis	4g\	-lis	4b\	-lis
4G\	pec-	4d\	pec-	4g\	pec-	4b\	pec-
=23	=23	=23	=23	=23	=23	=23	=23
4F#X\	-ca-	4d\	-ca-	4a\	-ca-	4cc\	-ca-
4G\	-ta	4d\	-ta	4g\	-ta	4b\	-ta
2F#\	mun-	2d\	mun-	2a\	mun-	2cc\	mun-
=24	=24	=24	=24	=24	=24	=24	=24
!LO:TX:a:t=Dona nobis ut Kyrie.	!	!LO:TX:a:t=Dona nobis ut Kyrie.	!	!	!	!	!
1G	-di.	1d	-di.	1g	-di	1b	-di
==	==	==	==	==	==	==	==
*-	*-	*-	*-	*-	*-	*-	*-
!!!system-decoration: [(s1,s2,s3,s4)]
!!!ENC: Anastazja Marusiak
!!!END: 2023-11-11
!!!ENC: Leszek Kubiak
!!!END: 2024-01-17
